X:1
T: Midnight Ramble
N:
C:
S:
A:
O:
R:
M:4/4
K:D
I:speed 200
%W: A1
% voice 1 (1 lines, 18 notes)
K:D
M:4/4
L:1/16
B2 c2 |d8 A8 |F6 E2 D4 F4 |E4 c4 E4 c4 |d4 A4 D2 E2 F2 D2 |
%W:
% voice 1 (1 lines, 16 notes)
d8 A8 |F6 E2 D4 A4 |B4 G4 F4 E4 |D D D2 D8 B2 c2 |
%W: A2
% voice 1 (1 lines, 16 notes)
d8 A8 |F6 E2 D4 F4 |E4 c4 E4 c4 |d4 A4 D2 E2 F2 D2 |
%W:
% voice 1 (1 lines, 16 notes)
d8 A8 |F6 E2 D4 A4 |B4 G4 F4 E4 |D D D2 D8 a2 g2 |
%W: B1
% voice 1 (1 lines, 20 notes)
f6 e2 d4 a4 |f4 d4 f2 g2 a2 f2 |e6 d2 e4 g4 |e4 c4 e2 f2 g2 e2 |
%W:
% voice 1 (1 lines, 18 notes)
f4 d4 g4 e4 |a4 f4 b4 g4 |f4 d4 e4 f4 |d d d2 d8 a2 g2 |
%W: B2
% voice 1 (1 lines, 20 notes)
f6 e2 d4 a4 |f4 d4 f2 g2 a2 f2 |e6 d2 e4 g4 |e4 c4 e2 f2 g2 e2 |
%W:
% voice 1 (1 lines, 16 notes)
f4 d4 g4 e4 |a4 f4 b4 g4 |f4 d4 e4 f4 |d d d2 d8 ||
